microphone-question.svg

<svg fill="currentColor" viewBox="0 0 24 24"><path d="M9 2c1.66 0 3 1.34 3 3v6c0 1.66-1.34 3-3 3s-3-1.34-3-3V5c0-1.66 1.34-3 3-3m7 9c0 3.53-2.61 6.44-6 6.93V21H8v-3.07c-3.39-.49-6-3.4-6-6.93h2c0 2.76 2.24 5 5 5s5-2.24 5-5zm4.5 3.5V16H19v-1.5zm-2-5H17V9c0-1.66 1.34-3 3-3s3 1.34 3 3c0 .97-.5 1.88-1.29 2.41l-.3.19c-.57.4-.91 1.01-.91 1.7v.2H19v-.2c0-1.19.6-2.3 1.59-2.95l.29-.19c.39-.26.62-.69.62-1.16 0-.83-.67-1.5-1.5-1.5s-1.5.67-1.5 1.5z"/></svg>

<svg  viewBox="0 0 24 24" fill="currentColor"><path  d="M9 2C10.66 2 12 3.34 12 5V11C12 12.66 10.66 14 9 14S6 12.66 6 11V5C6 3.34 7.34 2 9 2M16 11C16 14.53 13.39 17.44 10 17.93V21H8V17.93C4.61 17.44 2 14.53 2 11H4C4 13.76 6.24 16 9 16S14 13.76 14 11H16M20.5 14.5V16H19V14.5H20.5M18.5 9.5H17V9C17 7.34 18.34 6 20 6S23 7.34 23 9C23 9.97 22.5 10.88 21.71 11.41L21.41 11.6C20.84 12 20.5 12.61 20.5 13.3V13.5H19V13.3C19 12.11 19.6 11 20.59 10.35L20.88 10.16C21.27 9.9 21.5 9.47 21.5 9C21.5 8.17 20.83 7.5 20 7.5S18.5 8.17 18.5 9V9.5Z"/></svg>
